X: 1
T: Camp House Hornpipe
C: Jonathan Jensen
R: 3/2 hornpipe
Z: 2006 John Chambers <jc@trillian.mit.edu>
M: 3/2
L: 1/8
K: G
   dc Bcd2 \
| "G"g4 "D"f2BA "Em"GAB2 | "C"e4 "G"d2GF "Em"EFG2 | "Am"c2B2 A2B2 "A7"A2G2 | "D"d6 dc "G"Bcd2 |
|    g4 "D"f2BA "Em"GAB2 | "C"e4 "G"d2GF "Em"EFG2 | "Am"A2c2 B2A2 "D7"G2F2 |    A4    "G"G2  :|
|: dc Bcd2  \
| "C"e2g2- g2e2- "Am"e2c2 | "D"A2f2- f2d2- "Bm"d2B2 |  "C"G2e2- e2c2- "Am"c2A2 | "D"G4    F2DE FGA2 |
| "G"d2B2  G2de   "D"fga2 | "Em"g6     GF      EFG2 | "Am"A2c2  B2A2  "D7"G2F2 |    A4 "G"G2  :|
